rospo-icon-theme-classic-common/24x24/apps/org.perezdecastro.Revolt.svg

<svg height="24" viewBox="0 0 24 24" width="24" xmlns="http://www.w3.org/2000/svg"><circle cx="11.5" cy="12" opacity=".2" r="10.5"/><circle cx="11.5" cy="11.5" fill="#4f4f4f" r="10.5"/><path d="m11.5 3.5a1.5 1.5 0 0 0 -1.5 1.5 1.5 1.5 0 0 0 1.5 1.5 1.5 1.5 0 0 0 1.5-1.5 1.5 1.5 0 0 0 -1.5-1.5zm-3.535156.9384765a1.5 1.5 0 0 0 -.714844.2001955 1.5 1.5 0 0 0 -.548828 2.048828 1.5 1.5 0 0 0 2.048828.5498045 1.5 1.5 0 0 0  .548828-2.0498045 1.5 1.5 0 0 0 -1.333984-.7490235zm6.964844.000975a1.5 1.5 0 0 0 -1.228516.7480485 1.5 1.5 0 0 0  .548828 2.0498045 1.5 1.5 0 0 0 2.048828-.5498045 1.5 1.5 0 0 0 -.548828-2.048828 1.5 1.5 0 0 0 -.820312-.1992189zm2.596679 2.5605485a1.5 1.5 0 0 0 -.713867.201172 1.5 1.5 0 0 0 -.549805 2.048828 1.5 1.5 0 0 0 2.049805.548828 1.5 1.5 0 0 0  .548828-2.048828 1.5 1.5 0 0 0 -1.334961-.75zm-12.1591795.00195a1.5 1.5 0 0 0 -1.2285156.74805 1.5 1.5 0 0 0  .5488281 2.048828 1.5 1.5 0 0 0 2.0498045-.548828 1.5 1.5 0 0 0 -.5498045-2.048828 1.5 1.5 0 0 0 -.8203125-.199219zm-.8671875 3.49805a1.5 1.5 0 0 0 -1.5 1.5 1.5 1.5 0 0 0 1.5 1.5 1.5 1.5 0 0 0 1.5-1.5 1.5 1.5 0 0 0 -1.5-1.5zm14 0a1.5 1.5 0 0 0 -1.5 1.5 1.5 1.5 0 0 0 1.5 1.5 1.5 1.5 0 0 0 1.5-1.5 1.5 1.5 0 0 0 -1.5-1.5zm-13.097656 3.5a1.5 1.5 0 0 0 -.714844.201172 1.5 1.5 0 0 0 -.5488281 2.048828 1.5 1.5 0 0 0 2.0488281.548828 1.5 1.5 0 0 0  .5498045-2.048828 1.5 1.5 0 0 0 -1.3349605-.75zm12.088867.002a1.5 1.5 0 0 0 -1.228516.748 1.5 1.5 0 0 0  .549805 2.048828 1.5 1.5 0 0 0 2.048828-.548828 1.5 1.5 0 0 0 -.548828-2.048828 1.5 1.5 0 0 0 -.821289-.199219zm-2.526367 2.5605a1.5 1.5 0 0 0 -.714844.200195 1.5 1.5 0 0 0 -.548828 2.049805 1.5 1.5 0 0 0 2.048828.548828 1.5 1.5 0 0 0  .548828-2.048828 1.5 1.5 0 0 0 -1.333984-.75zm-7.0351565.001a1.5 1.5 0 0 0 -1.2285155.749 1.5 1.5 0 0 0  .548828 2.048828 1.5 1.5 0 0 0 2.048828-.548828 1.5 1.5 0 0 0 -.548828-2.049805 1.5 1.5 0 0 0 -.8203125-.199219zm3.5703125.9365a1.5 1.5 0 0 0 -1.5 1.5 1.5 1.5 0 0 0 1.5 1.5 1.5 1.5 0 0 0 1.5-1.5 1.5 1.5 0 0 0 -1.5-1.5z" opacity=".2"/><path d="m11.5 3a1.5 1.5 0 0 0 -1.5 1.5 1.5 1.5 0 0 0 1.5 1.5 1.5 1.5 0 0 0 1.5-1.5 1.5 1.5 0 0 0 -1.5-1.5zm-3.535156.9384765a1.5 1.5 0 0 0 -.714844.2001954 1.5 1.5 0 0 0 -.548828 2.0488281 1.5 1.5 0 0 0 2.048828.5498045 1.5 1.5 0 0 0  .548828-2.0498045 1.5 1.5 0 0 0 -1.333984-.7490235zm6.964844.000975a1.5 1.5 0 0 0 -1.228516.7480485 1.5 1.5 0 0 0  .548828 2.0498045 1.5 1.5 0 0 0 2.048828-.5498045 1.5 1.5 0 0 0 -.548828-2.0488281 1.5 1.5 0 0 0 -.820312-.1992188zm2.596679 2.5605485a1.5 1.5 0 0 0 -.713867.201172 1.5 1.5 0 0 0 -.549805 2.048828 1.5 1.5 0 0 0 2.049805.548828 1.5 1.5 0 0 0  .548828-2.048828 1.5 1.5 0 0 0 -1.334961-.75zm-12.1591795.00195a1.5 1.5 0 0 0 -1.2285156.74805 1.5 1.5 0 0 0  .5488281 2.048828 1.5 1.5 0 0 0 2.0498045-.548828 1.5 1.5 0 0 0 -.5498045-2.048828 1.5 1.5 0 0 0 -.8203125-.199219zm-.8671875 3.49805a1.5 1.5 0 0 0 -1.5 1.5 1.5 1.5 0 0 0 1.5 1.5 1.5 1.5 0 0 0 1.5-1.5 1.5 1.5 0 0 0 -1.5-1.5zm14 0a1.5 1.5 0 0 0 -1.5 1.5 1.5 1.5 0 0 0 1.5 1.5 1.5 1.5 0 0 0 1.5-1.5 1.5 1.5 0 0 0 -1.5-1.5zm-13.097656 3.5a1.5 1.5 0 0 0 -.714844.201172 1.5 1.5 0 0 0 -.5488281 2.048828 1.5 1.5 0 0 0 2.0488281.548828 1.5 1.5 0 0 0  .5498045-2.048828 1.5 1.5 0 0 0 -1.3349605-.75zm12.088867.002a1.5 1.5 0 0 0 -1.228516.748 1.5 1.5 0 0 0  .549805 2.048828 1.5 1.5 0 0 0 2.048828-.548828 1.5 1.5 0 0 0 -.548828-2.048828 1.5 1.5 0 0 0 -.821289-.199219zm-2.526367 2.5605a1.5 1.5 0 0 0 -.714844.200195 1.5 1.5 0 0 0 -.548828 2.049805 1.5 1.5 0 0 0 2.048828.548828 1.5 1.5 0 0 0  .548828-2.048828 1.5 1.5 0 0 0 -1.333984-.75zm-7.0351565.001a1.5 1.5 0 0 0 -1.2285155.749 1.5 1.5 0 0 0  .548828 2.048828 1.5 1.5 0 0 0 2.048828-.548828 1.5 1.5 0 0 0 -.548828-2.049805 1.5 1.5 0 0 0 -.8203125-.199219zm3.5703125.9365a1.5 1.5 0 0 0 -1.5 1.5 1.5 1.5 0 0 0 1.5 1.5 1.5 1.5 0 0 0 1.5-1.5 1.5 1.5 0 0 0 -1.5-1.5z" fill="#fff"/><circle cx="11.5" cy="11.5" opacity=".3" r="3.5"/><path d="m16.368191 13.500341c-.230947-.008-.261653.122719-.329822.468812-.343058 2.278561 1.657172 3.54278 4.285281 4.527741.768105.07089.926989-1.088717 1.173748-1.718409.319747-.815946.83203-1.547788.207678-1.884044l-5.030964-1.342284c-.130623-.03053-.228938-.04917-.30592-.05182z" opacity=".2"/><path d="m16.368193 13.000433c-.230947-.008-.261653.122719-.329822.468812-.343058 2.278561 1.657172 3.54278 4.285281 4.527741.768105.07089.926989-1.088717 1.173748-1.718409.319747-.815945.83203-1.547788.207678-1.884044l-5.030964-1.342284c-.130623-.03053-.228938-.04917-.30592-.05182z" fill="#8e8e8e"/><path d="m16.368164 13c-.230948-.008-.261909.122657-.330078.46875-.04032.267815-.04508.520737-.02343.761719.0063-.0865.0099-.172125.02343-.261719.06817-.346093.09913-.476705.330078-.46875.07698.0026.175041.02122.305664.05176l5.03125 1.342773c.132115.07115.205126.162975.248047.266602.0915-.329055.06557-.597696-.248047-.766602l-5.03125-1.342773c-.130623-.030537-.228681-.049113-.305664-.05176z" fill="#fff" opacity=".2"/><path d="m11.5 1a10.5 10.5 0 0 0 -10.5 10.5 10.5 10.5 0 0 0  .0097656.296875 10.5 10.5 0 0 1 10.4902344-10.296875 10.5 10.5 0 0 1 10.490234 10.203125 10.5 10.5 0 0 0  .009766-.203125 10.5 10.5 0 0 0 -10.5-10.5z" fill="#fff" opacity=".1"/><path d="m9 5.5a4 4 0 0 1 -4 4 4 4 0 0 1 -3.9999996-4 4 4 0 0 1 3.9999996-3.9999998 4 4 0 0 1 4 3.9999998z" opacity=".2"/><path d="m9 5a4 4 0 0 1 -4 4 4 4 0 0 1 -3.9999996-4 4 4 0 0 1 3.9999996-3.9999998 4 4 0 0 1 4 3.9999998z" fill="#ffae4a"/><path d="m5 1a4 4 0 0 0 -4 4 4 4 0 0 0  .0107422.288086 4 4 0 0 1 3.9892578-3.788086 4 4 0 0 1 3.989258 3.711914 4 4 0 0 0  .010742-.211914 4 4 0 0 0 -4-4z" fill="#fff" opacity=".2"/></svg>

<svg xmlns="http://www.w3.org/2000/svg" width="24" height="24" version="1.1" viewBox="0 0 24 24">
 <circle cx="11.5" cy="12" r="10.5" style="opacity:0.2"/>
 <circle style="fill:#4f4f4f" cx="11.5" cy="11.5" r="10.5"/>
 <path d="M 11.5,3.5 A 1.5,1.5 0 0 0 10,5 1.5,1.5 0 0 0 11.5,6.5 1.5,1.5 0 0 0 13,5 1.5,1.5 0 0 0 11.5,3.5 Z M 7.964844,4.4384765 A 1.5,1.5 0 0 0 7.25,4.638672 1.5,1.5 0 0 0 6.701172,6.6875 1.5,1.5 0 0 0 8.75,7.2373045 1.5,1.5 0 0 0 9.298828,5.1875 1.5,1.5 0 0 0 7.964844,4.4384765 Z m 6.964844,9.75e-4 A 1.5,1.5 0 0 0 13.701172,5.1875 1.5,1.5 0 0 0 14.25,7.2373045 1.5,1.5 0 0 0 16.298828,6.6875 1.5,1.5 0 0 0 15.75,4.638672 1.5,1.5 0 0 0 14.929688,4.4394531 Z M 17.526367,7 A 1.5,1.5 0 0 0 16.8125,7.201172 1.5,1.5 0 0 0 16.262695,9.25 1.5,1.5 0 0 0 18.3125,9.798828 1.5,1.5 0 0 0 18.861328,7.75 1.5,1.5 0 0 0 17.526367,7 Z M 5.3671875,7.00195 A 1.5,1.5 0 0 0 4.1386719,7.75 1.5,1.5 0 0 0 4.6875,9.798828 1.5,1.5 0 0 0 6.7373045,9.25 1.5,1.5 0 0 0 6.1875,7.201172 1.5,1.5 0 0 0 5.3671875,7.001953 Z M 4.5,10.5 A 1.5,1.5 0 0 0 3,12 1.5,1.5 0 0 0 4.5,13.5 1.5,1.5 0 0 0 6,12 1.5,1.5 0 0 0 4.5,10.5 Z m 14,0 A 1.5,1.5 0 0 0 17,12 1.5,1.5 0 0 0 18.5,13.5 1.5,1.5 0 0 0 20,12 1.5,1.5 0 0 0 18.5,10.5 Z M 5.402344,14 A 1.5,1.5 0 0 0 4.6875,14.201172 1.5,1.5 0 0 0 4.1386719,16.25 1.5,1.5 0 0 0 6.1875,16.798828 1.5,1.5 0 0 0 6.7373045,14.75 1.5,1.5 0 0 0 5.402344,14 Z m 12.088867,0.002 A 1.5,1.5 0 0 0 16.262695,14.75 1.5,1.5 0 0 0 16.8125,16.798828 1.5,1.5 0 0 0 18.861328,16.25 1.5,1.5 0 0 0 18.3125,14.201172 1.5,1.5 0 0 0 17.491211,14.001953 Z m -2.526367,2.5605 A 1.5,1.5 0 0 0 14.25,16.762695 1.5,1.5 0 0 0 13.701172,18.8125 1.5,1.5 0 0 0 15.75,19.361328 1.5,1.5 0 0 0 16.298828,17.3125 a 1.5,1.5 0 0 0 -1.333984,-0.75 z m -7.0351565,0.001 A 1.5,1.5 0 0 0 6.701172,17.3125 1.5,1.5 0 0 0 7.25,19.361328 1.5,1.5 0 0 0 9.298828,18.8125 1.5,1.5 0 0 0 8.75,16.762695 1.5,1.5 0 0 0 7.9296875,16.563476 Z M 11.5,17.5 A 1.5,1.5 0 0 0 10,19 1.5,1.5 0 0 0 11.5,20.5 1.5,1.5 0 0 0 13,19 1.5,1.5 0 0 0 11.5,17.5 Z" style="opacity:0.2"/>
 <path style="fill:#ffffff" d="M 11.5,3 A 1.5,1.5 0 0 0 10,4.5 1.5,1.5 0 0 0 11.5,6 1.5,1.5 0 0 0 13,4.5 1.5,1.5 0 0 0 11.5,3 Z M 7.964844,3.9384765 A 1.5,1.5 0 0 0 7.25,4.1386719 1.5,1.5 0 0 0 6.701172,6.1875 1.5,1.5 0 0 0 8.75,6.7373045 1.5,1.5 0 0 0 9.298828,4.6875 1.5,1.5 0 0 0 7.964844,3.9384765 Z m 6.964844,9.75e-4 A 1.5,1.5 0 0 0 13.701172,4.6875 1.5,1.5 0 0 0 14.25,6.7373045 1.5,1.5 0 0 0 16.298828,6.1875 1.5,1.5 0 0 0 15.75,4.1386719 1.5,1.5 0 0 0 14.929688,3.9394531 Z M 17.526367,6.5 A 1.5,1.5 0 0 0 16.8125,6.701172 1.5,1.5 0 0 0 16.262695,8.75 1.5,1.5 0 0 0 18.3125,9.298828 1.5,1.5 0 0 0 18.861328,7.25 1.5,1.5 0 0 0 17.526367,6.5 Z M 5.3671875,6.50195 A 1.5,1.5 0 0 0 4.1386719,7.25 1.5,1.5 0 0 0 4.6875,9.298828 1.5,1.5 0 0 0 6.7373045,8.75 1.5,1.5 0 0 0 6.1875,6.701172 1.5,1.5 0 0 0 5.3671875,6.501953 Z M 4.5,10 A 1.5,1.5 0 0 0 3,11.5 1.5,1.5 0 0 0 4.5,13 1.5,1.5 0 0 0 6,11.5 1.5,1.5 0 0 0 4.5,10 Z m 14,0 A 1.5,1.5 0 0 0 17,11.5 1.5,1.5 0 0 0 18.5,13 1.5,1.5 0 0 0 20,11.5 1.5,1.5 0 0 0 18.5,10 Z M 5.402344,13.5 A 1.5,1.5 0 0 0 4.6875,13.701172 1.5,1.5 0 0 0 4.1386719,15.75 1.5,1.5 0 0 0 6.1875,16.298828 1.5,1.5 0 0 0 6.7373045,14.25 1.5,1.5 0 0 0 5.402344,13.5 Z m 12.088867,0.002 A 1.5,1.5 0 0 0 16.262695,14.25 1.5,1.5 0 0 0 16.8125,16.298828 1.5,1.5 0 0 0 18.861328,15.75 1.5,1.5 0 0 0 18.3125,13.701172 1.5,1.5 0 0 0 17.491211,13.501953 Z m -2.526367,2.5605 A 1.5,1.5 0 0 0 14.25,16.262695 1.5,1.5 0 0 0 13.701172,18.3125 1.5,1.5 0 0 0 15.75,18.861328 1.5,1.5 0 0 0 16.298828,16.8125 a 1.5,1.5 0 0 0 -1.333984,-0.75 z m -7.0351565,0.001 A 1.5,1.5 0 0 0 6.701172,16.8125 1.5,1.5 0 0 0 7.25,18.861328 1.5,1.5 0 0 0 9.298828,18.3125 1.5,1.5 0 0 0 8.75,16.262695 1.5,1.5 0 0 0 7.9296875,16.063476 Z M 11.5,17 A 1.5,1.5 0 0 0 10,18.5 1.5,1.5 0 0 0 11.5,20 1.5,1.5 0 0 0 13,18.5 1.5,1.5 0 0 0 11.5,17 Z"/>
 <circle style="opacity:0.3" cx="11.5" cy="11.5" r="3.5"/>
 <path d="m 16.368191,13.500341 c -0.230947,-0.008 -0.261653,0.122719 -0.329822,0.468812 -0.343058,2.278561 1.657172,3.54278 4.285281,4.527741 0.768105,0.07089 0.926989,-1.088717 1.173748,-1.718409 0.319747,-0.815946 0.83203,-1.547788 0.207678,-1.884044 l -5.030964,-1.342284 c -0.130623,-0.03053 -0.228938,-0.04917 -0.30592,-0.05182 z" style="opacity:0.2"/>
 <path style="fill:#8e8e8e" d="m 16.368193,13.000433 c -0.230947,-0.008 -0.261653,0.122719 -0.329822,0.468812 -0.343058,2.278561 1.657172,3.54278 4.285281,4.527741 0.768105,0.07089 0.926989,-1.088717 1.173748,-1.718409 0.319747,-0.815945 0.83203,-1.547788 0.207678,-1.884044 l -5.030964,-1.342284 c -0.130623,-0.03053 -0.228938,-0.04917 -0.30592,-0.05182 z"/>
 <path style="opacity:0.2;fill:#ffffff" d="m 16.368164,13 c -0.230948,-0.008 -0.261909,0.122657 -0.330078,0.46875 -0.04032,0.267815 -0.04508,0.520737 -0.02343,0.761719 0.0063,-0.0865 0.0099,-0.172125 0.02343,-0.261719 0.06817,-0.346093 0.09913,-0.476705 0.330078,-0.46875 0.07698,0.0026 0.175041,0.02122 0.305664,0.05176 l 5.03125,1.342773 c 0.132115,0.07115 0.205126,0.162975 0.248047,0.266602 0.0915,-0.329055 0.06557,-0.597696 -0.248047,-0.766602 L 16.673828,13.05176 C 16.543205,13.021223 16.445147,13.002647 16.368164,13 Z"/>
 <path style="fill:#ffffff;opacity:0.1" d="M 11.5 1 A 10.5 10.5 0 0 0 1 11.5 A 10.5 10.5 0 0 0 1.0097656 11.796875 A 10.5 10.5 0 0 1 11.5 1.5 A 10.5 10.5 0 0 1 21.990234 11.703125 A 10.5 10.5 0 0 0 22 11.5 A 10.5 10.5 0 0 0 11.5 1 z"/>
 <path d="M 9,5.5 A 4,4 0 0 1 5,9.5 4,4 0 0 1 1.0000004,5.5 4,4 0 0 1 5,1.5000002 4,4 0 0 1 9,5.5 Z" style="opacity:0.2"/>
 <path style="fill:#ffae4a" d="M 9,5 A 4,4 0 0 1 5,9 4,4 0 0 1 1.0000004,5 4,4 0 0 1 5,1.0000002 4,4 0 0 1 9,5 Z"/>
 <path style="opacity:0.2;fill:#ffffff" d="M 5,1 A 4,4 0 0 0 1,5 4,4 0 0 0 1.0107422,5.288086 4,4 0 0 1 5,1.5 4,4 0 0 1 8.989258,5.211914 4,4 0 0 0 9,5 4,4 0 0 0 5,1 Z"/>
</svg>
